front/public/static/landing/logos/color/wakam.svg

<svg fill="none" height="64" viewBox="0 0 160 64" width="160" xmlns="http://www.w3.org/2000/svg" xmlns:xlink="http://www.w3.org/1999/xlink"><clipPath id="a"><path d="m30.71 22h98.5805v20h-98.5805z"/></clipPath><g clip-path="url(#a)" fill="#0540ff"><path d="m37.8723 42.0008c-.3766-.0008-.7467-.0978-1.0752-.2818-.3285-.1841-.6045-.4491-.8018-.7698-.1973-.3208-.3093-.6866-.3253-1.0628-.0161-.3763.0643-.7503.2335-1.0867l4.8777-9.6817c.2697-.5121.7296-.8979 1.2808-1.0744.5512-.1764 1.1497-.1295 1.6666.1308.5169.2602.9111.713 1.0976 1.2609.1865.5478.1506 1.147-.1002 1.6687l-4.8787 9.6801c-.1844.3657-.4669.6729-.8159.8873-.3489.2144-.7506.3275-1.1602.3268z" opacity=".35"/><path d="m117.248 41.9997c-.377-.0008-.747-.0979-1.075-.282-.329-.1841-.605-.4491-.802-.7698s-.309-.6866-.325-1.0627c-.016-.3762.064-.7502.234-1.0866l4.878-9.6801c.268-.5146.728-.9028 1.28-1.0809.553-.178 1.153-.1314 1.671.1296s.912.7156 1.098 1.2653c.185.5497.147 1.1503-.107 1.672l-4.879 9.6801c-.184.3655-.466.6726-.814.8872-.349.2146-.75.3281-1.159.3279z" opacity=".35"/><path d="m47.7066 41.9992c-.4063-.0001-.8048-.1124-1.1515-.3245-.3466-.2121-.628-.5158-.813-.8776l-4.9561-9.6796c-.1322-.258-.2124-.5394-.2358-.8283-.0234-.289.0103-.5797.0992-.8556.1795-.5572.5731-1.0202 1.094-1.2872.521-.2671 1.1267-.3162 1.6839-.1367.2759.0889.5316.2313.7525.419.2208.1878.4026.4172.5348.6751l2.979 5.8127 2.9236-5.8012c.2637-.5231.7244-.92 1.2808-1.1035.5563-.1834 1.1628-.1383 1.6859.1254s.92.7244 1.1034 1.2808c.1835.5564.1384 1.1628-.1253 1.6859l-4.8788 9.6802c-.1833.3639-.4639.67-.8106.8842s-.7459.3282-1.1534.3293z"/><path d="m37.8761 41.9982c-.4067.0002-.8055-.1119-1.1524-.3241-.347-.2121-.6286-.5159-.8137-.878l-4.9567-9.678c-.2669-.521-.316-1.1267-.1364-1.6838.1796-.5572.5732-1.0201 1.0942-1.2871.5209-.267 1.1266-.316 1.6838-.1364.5571.1796 1.0201.5731 1.287 1.0941l4.9561 9.6802c.1719.3363.2547.7112.2404 1.0887s-.1252.745-.3221 1.0674-.4732.5889-.8024.774c-.3293.1852-.7006.2828-1.0783.2835z"/><path d="m107.413 41.9996c-.377-.0008-.747-.0979-1.075-.282-.329-.1841-.605-.4491-.802-.7698-.197-.3208-.309-.6866-.325-1.0628-.016-.3761.064-.7502.234-1.0865l4.877-9.6802c.183-.364.464-.67.81-.8843.347-.2142.746-.3281 1.154-.3292h.007c.406 0 .804.1123 1.151.3244.346.2121.628.5158.813.8776l4.956 9.6802c.267.5209.316 1.1266.136 1.6838-.179.5571-.573 1.0201-1.094 1.2871-.521.2669-1.127.316-1.684.1364s-1.02-.5732-1.287-1.0941l-2.976-5.8138-2.921 5.8012c-.184.3651-.467.6717-.815.8857-.349.214-.75.3269-1.159.3263z"/><path d="m127.086 41.9982c-.406.0002-.805-.1119-1.152-.324-.347-.2122-.628-.516-.814-.878l-4.956-9.6802c-.132-.258-.212-.5394-.235-.8283-.024-.2889.01-.5796.099-.8555s.231-.5315.419-.7524c.188-.2208.417-.4025.675-.5347s.539-.2123.828-.2357.58.0103.856.0993c.276.0889.531.2313.752.419.221.1878.403.4172.535.6751l4.956 9.6802c.172.3364.255.7112.24 1.0887-.014.3775-.125.745-.322 1.0674s-.473.5889-.802.7741c-.329.1851-.701.2827-1.079.2834z"/><path d="m86.4769 38.1448-4.4638-3.4896 4.4142-2.9612c.4606-.3088.7798-.788.8871-1.3321.1074-.5441-.0058-1.1086-.3146-1.5693s-.788-.7798-1.3321-.8872c-.5441-.1073-1.1086.0058-1.5693.3147l-6.1341 4.1125v-8.1446c0-.5802-.2305-1.1367-.6408-1.547-.4102-.4103-.9667-.6408-1.5469-.6408s-1.1367.2305-1.5469.6408c-.4103.4103-.6408.9668-.6408 1.547v15.5655c0 .5802.2305 1.1366.6408 1.5469.4102.4103.9667.6408 1.5469.6408s1.1367-.2305 1.5469-.6408c.4103-.4103.6408-.9667.6408-1.5469v-2.9524l5.9371 4.6363c.2154.1767.464.3085.7311.3878s.5474.1043.8243.0737c.277-.0306.545-.1162.7884-.2519.2433-.1357.4571-.3186.6288-.5381.1716-.2195.2977-.471.3707-.7399s.0915-.5497.0545-.8258c-.037-.2762-.1289-.5422-.2702-.7823s-.3292-.4496-.5526-.6161z"/><path d="m70.2407 34.9132c-.0092-1.5321-.5207-3.0189-1.4559-4.2325s-2.2427-2.087-3.7219-2.4864c-1.4791-.3993-3.0485-.3025-4.4674.2755s-2.6091 1.6054-3.3882 2.9247-1.104 2.8577-.9249 4.3793c.179 1.5217.8521 2.9426 1.9161 4.0451 1.0639 1.1024 2.4601 1.8255 3.9744 2.0584 1.5144.233 3.0633-.0371 4.4094-.7689.2465.3496.5979.6115 1.0033.7479s.8436.1401 1.2513.0107c.4076-.1295.7635-.3854 1.0159-.7307s.3883-.762.3879-1.1897zm-7.0032 3.0976c-.605 0-1.1964-.1794-1.6995-.5155-.503-.3361-.8951-.8139-1.1266-1.3728-.2315-.559-.2921-1.174-.1741-1.7674s.4094-1.1385.8372-1.5663.9728-.7191 1.5662-.8371c.5934-.1181 1.2084-.0575 1.7674.174.5589.2316 1.0367.6236 1.3728 1.1267.3361.503.5155 1.0944.5155 1.6994 0 .8113-.3222 1.5894-.8959 2.1631-.5737.5736-1.3517.8959-2.163.8959z"/><path d="m103.231 34.9132c-.01-1.5321-.521-3.0189-1.456-4.2325-.936-1.2136-2.2431-2.087-3.7223-2.4864-1.4792-.3993-3.0485-.3025-4.4674.2755-1.419.578-2.6092 1.6054-3.3882 2.9247-.7791 1.3193-1.104 2.8577-.925 4.3793.179 1.5217.8521 2.9426 1.9161 4.0451 1.064 1.1024 2.4602 1.8255 3.9745 2.0584 1.5143.233 3.0633-.0371 4.4094-.7689.2467.3492.5979.6108 1.0029.747.406.1362.844.1398 1.251.0104.408-.1294.763-.3851 1.016-.7302.252-.345.388-.7614.389-1.189zm-7.0037 3.0976c-.6051 0-1.1965-.1794-1.6995-.5155-.5031-.3361-.8951-.8139-1.1267-1.3728-.2315-.559-.2921-1.174-.174-1.7674.118-.5934.4094-1.1385.8372-1.5663s.9728-.7191 1.5662-.8371c.5934-.1181 1.2084-.0575 1.7674.174.5589.2316 1.0366.6236 1.3728 1.1267.3361.503.5155 1.0944.5155 1.6994 0 .8113-.3223 1.5894-.896 2.1631-.5736.5736-1.3517.8959-2.1629.8959z"/></g></svg>

<svg width="160" height="64" viewBox="0 0 160 64" fill="none" xmlns="http://www.w3.org/2000/svg">
<g clip-path="url(#clip0_1794_3549)">
<g opacity="0.35">
<path d="M37.8723 42.0008C37.4957 42 37.1256 41.903 36.7971 41.719C36.4686 41.5349 36.1926 41.2699 35.9953 40.9492C35.798 40.6284 35.686 40.2626 35.67 39.8864C35.6539 39.5101 35.7343 39.1361 35.9035 38.7997L40.7812 29.118C41.0509 28.6059 41.5108 28.2201 42.062 28.0436C42.6132 27.8672 43.2117 27.9141 43.7286 28.1744C44.2455 28.4346 44.6397 28.8874 44.8262 29.4353C45.0127 29.9831 44.9768 30.5823 44.726 31.104L39.8473 40.7841C39.6629 41.1498 39.3804 41.457 39.0314 41.6714C38.6825 41.8858 38.2808 41.9989 37.8712 41.9982L37.8723 42.0008Z" fill="#0540FF"/>
</g>
<g opacity="0.35">
<path d="M117.248 41.9997C116.871 41.9989 116.501 41.9018 116.173 41.7177C115.844 41.5336 115.568 41.2686 115.371 40.9479C115.174 40.6272 115.062 40.2613 115.046 39.8852C115.03 39.509 115.11 39.135 115.28 38.7986L120.158 29.1185C120.426 28.6039 120.886 28.2157 121.438 28.0376C121.991 27.8596 122.591 27.9062 123.109 28.1672C123.627 28.4282 124.021 28.8828 124.207 29.4325C124.392 29.9822 124.354 30.5828 124.1 31.1045L119.221 40.7846C119.037 41.1501 118.755 41.4572 118.407 41.6718C118.058 41.8864 117.657 41.9999 117.248 41.9997Z" fill="#0540FF"/>
</g>
<path d="M47.7066 41.9992C47.3003 41.9991 46.9018 41.8868 46.5551 41.6747C46.2085 41.4626 45.9271 41.1589 45.7421 40.7971L40.786 31.1175C40.6538 30.8595 40.5736 30.5781 40.5502 30.2892C40.5268 30.0002 40.5605 29.7095 40.6494 29.4336C40.8289 28.8764 41.2225 28.4134 41.7434 28.1464C42.2644 27.8793 42.8701 27.8302 43.4273 28.0097C43.7032 28.0986 43.9589 28.241 44.1798 28.4287C44.4006 28.6165 44.5824 28.8459 44.7146 29.1038L47.6936 34.9165L50.6172 29.1153C50.8809 28.5922 51.3416 28.1953 51.898 28.0118C52.4543 27.8284 53.0608 27.8735 53.5839 28.1372C54.107 28.4009 54.5039 28.8616 54.6873 29.418C54.8708 29.9744 54.8257 30.5808 54.562 31.1039L49.6832 40.7841C49.4999 41.148 49.2193 41.4541 48.8726 41.6683C48.5259 41.8825 48.1267 41.9965 47.7192 41.9976L47.7066 41.9992Z" fill="#0540FF"/>
<path d="M37.8761 41.9982C37.4694 41.9984 37.0706 41.8863 36.7237 41.6741C36.3767 41.462 36.0951 41.1582 35.91 40.7961L30.9533 31.1181C30.6864 30.5971 30.6373 29.9914 30.8169 29.4343C30.9965 28.8771 31.3901 28.4142 31.9111 28.1472C32.432 27.8802 33.0377 27.8312 33.5949 28.0108C34.152 28.1904 34.615 28.5839 34.8819 29.1049L39.838 38.7851C40.0099 39.1214 40.0927 39.4963 40.0784 39.8738C40.0641 40.2513 39.9532 40.6188 39.7563 40.9412C39.5594 41.2636 39.2831 41.5301 38.9539 41.7152C38.6246 41.9004 38.2533 41.998 37.8756 41.9987L37.8761 41.9982Z" fill="#0540FF"/>
<path d="M107.413 41.9996C107.036 41.9988 106.666 41.9017 106.338 41.7176C106.009 41.5335 105.733 41.2685 105.536 40.9478C105.339 40.627 105.227 40.2612 105.211 39.885C105.195 39.5089 105.275 39.1348 105.445 38.7985L110.322 29.1183C110.505 28.7543 110.786 28.4483 111.132 28.234C111.479 28.0198 111.878 27.9059 112.286 27.9048H112.293C112.699 27.9048 113.097 28.0171 113.444 28.2292C113.79 28.4413 114.072 28.745 114.257 29.1068L119.213 38.787C119.48 39.3079 119.529 39.9136 119.349 40.4708C119.17 41.0279 118.776 41.4909 118.255 41.7579C117.734 42.0248 117.128 42.0739 116.571 41.8943C116.014 41.7147 115.551 41.3211 115.284 40.8002L112.308 34.9864L109.387 40.7876C109.203 41.1527 108.92 41.4593 108.572 41.6733C108.223 41.8873 107.822 42.0002 107.413 41.9996Z" fill="#0540FF"/>
<path d="M127.086 41.9982C126.68 41.9984 126.281 41.8863 125.934 41.6742C125.587 41.462 125.306 41.1582 125.12 40.7962L120.164 31.116C120.032 30.858 119.952 30.5766 119.929 30.2877C119.905 29.9988 119.939 29.7081 120.028 29.4322C120.117 29.1563 120.259 28.9007 120.447 28.6798C120.635 28.459 120.864 28.2773 121.122 28.1451C121.38 28.0129 121.661 27.9328 121.95 27.9094C122.239 27.886 122.53 27.9197 122.806 28.0087C123.082 28.0976 123.337 28.24 123.558 28.4277C123.779 28.6155 123.961 28.8449 124.093 29.1028L129.049 38.783C129.221 39.1194 129.304 39.4942 129.289 39.8717C129.275 40.2492 129.164 40.6167 128.967 40.9391C128.77 41.2615 128.494 41.528 128.165 41.7132C127.836 41.8983 127.464 41.9959 127.086 41.9966V41.9982Z" fill="#0540FF"/>
<path d="M86.4769 38.1448L82.0131 34.6552L86.4273 31.694C86.8879 31.3852 87.2071 30.906 87.3144 30.3619C87.4218 29.8178 87.3086 29.2533 86.9998 28.7926C86.691 28.3319 86.2118 28.0128 85.6677 27.9054C85.1236 27.7981 84.5591 27.9112 84.0984 28.2201L77.9643 32.3326V24.188C77.9643 23.6078 77.7338 23.0513 77.3235 22.641C76.9133 22.2307 76.3568 22.0002 75.7766 22.0002C75.1964 22.0002 74.6399 22.2307 74.2297 22.641C73.8194 23.0513 73.5889 23.6078 73.5889 24.188V39.7535C73.5889 40.3337 73.8194 40.8901 74.2297 41.3004C74.6399 41.7107 75.1964 41.9412 75.7766 41.9412C76.3568 41.9412 76.9133 41.7107 77.3235 41.3004C77.7338 40.8901 77.9643 40.3337 77.9643 39.7535V36.8011L83.9014 41.4374C84.1168 41.6141 84.3654 41.7459 84.6325 41.8252C84.8996 41.9045 85.1799 41.9295 85.4568 41.8989C85.7338 41.8683 86.0018 41.7827 86.2452 41.647C86.4885 41.5113 86.7023 41.3284 86.874 41.1089C87.0456 40.8894 87.1717 40.6379 87.2447 40.369C87.3177 40.1001 87.3362 39.8193 87.2992 39.5432C87.2622 39.267 87.1703 39.001 87.029 38.7609C86.8877 38.5208 86.6998 38.3113 86.4764 38.1448H86.4769Z" fill="#0540FF"/>
<path d="M70.2407 34.9132C70.2315 33.3811 69.72 31.8943 68.7848 30.6807C67.8496 29.4671 66.5421 28.5937 65.0629 28.1943C63.5838 27.795 62.0144 27.8918 60.5955 28.4698C59.1766 29.0478 57.9864 30.0752 57.2073 31.3945C56.4282 32.7138 56.1033 34.2522 56.2824 35.7738C56.4614 37.2955 57.1345 38.7164 58.1985 39.8189C59.2624 40.9213 60.6586 41.6444 62.1729 41.8773C63.6873 42.1103 65.2362 41.8402 66.5823 41.1084C66.8288 41.458 67.1802 41.7199 67.5856 41.8563C67.991 41.9927 68.4292 41.9964 68.8369 41.867C69.2445 41.7375 69.6004 41.4816 69.8528 41.1363C70.1052 40.791 70.2411 40.3743 70.2407 39.9466V34.9132ZM63.2375 38.0108C62.6325 38.0108 62.0411 37.8314 61.538 37.4953C61.035 37.1592 60.6429 36.6814 60.4114 36.1225C60.1799 35.5635 60.1193 34.9485 60.2373 34.3551C60.3553 33.7617 60.6467 33.2166 61.0745 32.7888C61.5023 32.361 62.0473 32.0697 62.6407 31.9517C63.2341 31.8336 63.8491 31.8942 64.4081 32.1257C64.967 32.3573 65.4448 32.7493 65.7809 33.2524C66.117 33.7554 66.2964 34.3468 66.2964 34.9518C66.2964 35.7631 65.9742 36.5412 65.4005 37.1149C64.8268 37.6885 64.0488 38.0108 63.2375 38.0108Z" fill="#0540FF"/>
<path d="M103.231 34.9132C103.221 33.3811 102.71 31.8943 101.775 30.6807C100.839 29.4671 99.5319 28.5937 98.0527 28.1943C96.5735 27.795 95.0042 27.8918 93.5853 28.4698C92.1663 29.0478 90.9761 30.0752 90.1971 31.3945C89.418 32.7138 89.0931 34.2522 89.2721 35.7738C89.4511 37.2955 90.1242 38.7164 91.1882 39.8189C92.2522 40.9213 93.6484 41.6444 95.1627 41.8773C96.677 42.1103 98.226 41.8402 99.5721 41.1084C99.8188 41.4576 100.17 41.7192 100.575 41.8554C100.981 41.9916 101.419 41.9952 101.826 41.8658C102.234 41.7364 102.589 41.4807 102.842 41.1356C103.094 40.7906 103.23 40.3742 103.231 39.9466V34.9132ZM96.2273 38.0108C95.6222 38.0108 95.0308 37.8314 94.5278 37.4953C94.0247 37.1592 93.6327 36.6814 93.4011 36.1225C93.1696 35.5635 93.109 34.9485 93.2271 34.3551C93.3451 33.7617 93.6365 33.2166 94.0643 32.7888C94.4921 32.361 95.0371 32.0697 95.6305 31.9517C96.2239 31.8336 96.8389 31.8942 97.3979 32.1257C97.9568 32.3573 98.4345 32.7493 98.7707 33.2524C99.1068 33.7554 99.2862 34.3468 99.2862 34.9518C99.2862 35.7631 98.9639 36.5412 98.3902 37.1149C97.8166 37.6885 97.0385 38.0108 96.2273 38.0108Z" fill="#0540FF"/>
</g>
<defs>
<clipPath id="clip0_1794_3549">
<rect width="98.5805" height="20" fill="white" transform="translate(30.71 22)"/>
</clipPath>
</defs>
</svg>
